X:1
T:Duos pour Deux Violoncelles
T:Allegro
T:Duo pour Deux Violoncelles
T:Jacques Offenbach, OP. 49
C:Jacques Offenbach
%%score 1 2
L:1/8
Q:1/4=144
M:6/8
K:G
V:1 bass nm="Violoncello 1"
V:2 bass nm="Violoncello 2"
V:1
"^Allegro"!p! G,2 A, C2 B, | (B,A,^G,) A,3 | A,2 B, D2 C | (CB,A,) B,3 | B,2 _B, (A,D).=B, | %5
 A,2 (G,/E,/) (D,C,).A,, | G,,2 z (F,2 G,) | D,3 (D,A,,F,,) | D,,2 z F,3 | (F,3 G,)(G,F,) | %10
!f! E,B,,G,, E,,3 | B,,3- B,,(B,,A,,) | G,,3 E,,3 | B,,3 F,3 | (E,2 F,) G,2 A, | B,2 ^A, B,2 _B, | %16
 (A, D2) =B,G,E, | F,3 E,3 | D,3- D,F,D, | ^C,2 B,, A,,3 | D,3- D,F,D, | ^C,2 B,, (A,,2 E,) | %22
 F,3 ^G,3 | A,3 B,3 | (^CDB,) (A,2 ^G,) | A,6 |!p! _B,,2 A,, G,,3 | .^C,,(C,,D,,) .E,,G,,A,, | %28
 _B,,2 A,, G,,3 | .^C,,(C,,D,,) .E,,(A,,G,,) | ^F,,2 z z2 z | (G,,2 B,,) D,2 z | D,3- D,(D^C) | %33
 (^C2 B,) A,3 | G,3- G,(A,B,) | F,3- F,(G,A,) | E,3 A,3 | G,3 F,3 | G,3- G,(A,B,) | F,3- F,(G,A,) | %40
 E,3 A,3 | D,2!f! z A,,2 z | D,2 F, (A,G,)E, | D,3 D,3 | D,2 z z2 z :| (B,,D,).D, .D,2 z | %46
 (^A,,F,).F, .F,2 z | (^A,,E,)E, E,2 z | B,,F,D, B,,3 | B,3 (A,2 G,) | G,3 (F,2 E,) | %51
 (D,2 E,) (D,2 ^C,) | ^C,3 B,,3 | F,3 B,3 | (B,2 ^A,) ^C3 | F,3 ^C3 | (^C2 B,) D3 | D3 (D^CB,) | %58
 A,3 A,B,^C | D3 (D^CB,) | A,2 z!f! (E,,2 ^G,,) | A,,2 z ^C,,3 | D,,2 z D,3 | E,3 E,3 | %64
 A,,2 z (^C2 B,) | A,2 z (A,2 ^G,) | F,2 z (D2 B,) | F,3 (^C2 B,) | A,2 z z2 z | %69
!p!"_crescendo" D,3- D,(F,E,) | (D,2 ^C,) D,3 | F,3- F,(A,G,) | (F,2 ^E,) F,2 z | %73
 F,2 G,!<(! B,2 A, | A,2 B, D2 ^C!<)! |!f! !fermata!=C3- C2 z |!p! G,2 A, C2 B, | (B,A,^G,) A,2 z | %78
 (A,2 B,) (D2 C) | (CB,A,) B,3 | B,2 _B, (A,D).=B, | A,2 (G,/E,/) (D,C,A,,) | G,,2 z (F,2 G,) | %83
 D,3 D,A,,F,, | D,,2 z F,3 | F,3 G,D,B,, | A,,E,C, A,,2 z | D,,B,,G,, D,,2 z | D,,C,A,, D,,2 z | %89
 [G,,D,]3- [G,,D,]2 z | A,3 (A,B,C) | G,3 G,A,B, | F,3 F,E,F, | G,2!f! z [D,,C,]2 z | %94
 [D,,B,,] z B, (DC)A, | G,2 z [D,B,]2 z | [D,B,]2 z z2 z |] %97
V:2
!p! G,,2 z (F,2 G,) | D,3 (D,A,,F,,) | D,,2 z F,3 | F,3 (G,D,B,,) | G,,2 z (D,2 G,,) | %5
 A,,2 z (D,E,).F, | G,2 A, C2 B, | (B,A,G,) A,3 | A,2 B, D2 C | (CB,A,) B,3 |!f! B,3 B,G,E, | %11
 ^D,3 F,3 | B,2 ^A, B,G,E, | ^D,3 B,,2 A,, | G,,2 ^D, E,2 F, | G,2 z G,,2 z | F,,3 G,,3 | %17
 A,,3 A,,3 | D,,2 z z2 z | A,2 B, (^C>B,A,/G,/) | F,2 z z2 z | A,2 B, ^C>(B,A,/G,/) | F,3 E,2 D, | %23
 ^C,3 D,3 | E,3 E,2 E,, | .A,,(A,,B,,) .^C,(E,F,) |!p! G,3- G,(A,!courtesy!_B,) | (E,2 D,) ^C,3 | %28
 G,3- G,(A,!courtesy!_B,) | (E,2 D,) ^C,3 | D,3- D,(D^C) | (^C2 B,) A,3 | D,3- D,(B,A,) | %33
 (A,2 G,) F,3 | G,,2 B,, E,2 z | A,,2 A,, D,2 z | A,,3 A,,3 | (A,,B,,^C,) D,3 | G,,2 B,, E,2 z | %39
 A,,2 A,, D,2 z | ^C,3 A,,3 | D,2!f! D (^CB,)A, | D2 z ^C,3 | D,3 D,,3 | D,,2 z z2 z :| F,3 B,3 | %46
 (B,2 ^A,) ^C3 | F,3 ^C3 | (^C2 B,) D3 | D3 .^C2 B, | B,3 A,2 G, | F,2 G, F,2 E, | E,3 D,3 | %53
 B,,D,.D, D,2 z | ^A,,F,.F, F,2 z | ^A,,E,.E, E,3 | B,,F,D, B,,3 | E,3 E,F,^G, | A,3 A,^G,F, | %59
 E,3 E,^F,^G, | A,2 z!f! ^C2 B, | A,2 z A,2 ^G, | F,2 z D2 B, | A,3 B,3 | ^C2 z E,,2 ^G,, | %65
 A,,2 z ^C,,3 | D,,2 z D,3 | E,3 E,3 | A,,B,,A,, G,,F,,E,, |"_cresc." D,,3 (F,,2 A,,) | %70
 D,2 z z2 z | D,3- D,(F,E,) | (D,2 ^C,) D,2 z | D,2 E,!<(! G,2 F, | F,2 G, B,2 ^A,!<)! | %75
!f! !fermata![D,=A,]3- [D,A,]2 z |!p! G,,2 z (F,2 G,) | D,3 (D,A,,F,,) | D,,2 z F,3 | %79
 F,3 (G,D,B,,) | G,,2 z (D,,2 G,,) | A,,2 z (D,E,).F, | G,2 A, C2 B, | (B,A,G,) A,3 | A,2 B, D2 C | %85
 (CB,A,) B,3 | A,3- A,B,C | G,3 G,A,B, | F,3 F,E,D, | G,2 B, D2 z | A,,E,C, A,,2 z | %91
 D,,B,,G,, D,,2 z | D,,C,A,, D,2 C, | B,,2!f! G, F,E,D, | G, z z C,2 z | [D,,B,,]2 z [G,,D,]2 z | %96
 [G,,D,]2 z z2 z |] %97

